X: 24
M:4/4
L:1/8
K:C
a|c<Ae>A dG B2|c<Ae>A cAea|c<Ae>A d>G B2|c<Ae>A c2 B<a|
c<Ae>A dG B2|c<Ae>A cAea|cAeA dG B2|c<Ae>A c2 Bc||

